assets/svg/icon_block.svg

<svg width="24" height="24" viewBox="0 0 24 24" fill="none" xmlns="http://www.w3.org/2000/svg">
<path fill-rule="evenodd" clip-rule="evenodd" d="M12.0223 3.22578C11.3975 3.22578 10.7826 3.42684 9.24885 3.95187L8.70468 4.13813C7.26772 4.63001 6.21976 4.98903 5.48398 5.28794C5.11672 5.43713 4.85062 5.56216 4.66384 5.67063C4.57162 5.72419 4.50809 5.76838 4.46565 5.80288C4.42968 5.83212 4.41596 5.84868 4.41399 5.8511C4.41216 5.85408 4.40035 5.87381 4.38372 5.9205C4.36473 5.9738 4.34369 6.05022 4.32319 6.15659C4.2817 6.37189 4.25026 6.66764 4.22854 7.06656C4.18503 7.86569 4.18477 8.9812 4.18477 10.5091V12.0051C4.18477 16.9215 7.86117 19.3411 10.3111 20.4113C10.6641 20.5655 10.8678 20.6527 11.0947 20.7107C11.3114 20.7662 11.5758 20.8008 12.0223 20.8008C12.4688 20.8008 12.7332 20.7662 12.9498 20.7107C13.1767 20.6527 13.3805 20.5655 13.7334 20.4113C16.1834 19.3411 19.8598 16.9215 19.8598 12.0051V10.5091C19.8598 8.9812 19.8595 7.86569 19.816 7.06656C19.7943 6.66764 19.7629 6.37189 19.7213 6.15659C19.7008 6.05022 19.6798 5.9738 19.6608 5.9205C19.6442 5.87378 19.6323 5.85405 19.6305 5.85109C19.6285 5.84866 19.6149 5.8321 19.5789 5.80288C19.5365 5.76838 19.4729 5.72419 19.3807 5.67063C19.1939 5.56216 18.9278 5.43713 18.5605 5.28794C17.8248 4.98903 16.7768 4.63001 15.3399 4.13813L14.7957 3.95187C13.2619 3.42684 12.6471 3.22578 12.0223 3.22578ZM8.90949 2.56185C10.2812 2.09203 11.1316 1.80078 12.0223 1.80078C12.9129 1.80078 13.7633 2.09203 15.135 2.56185C15.1753 2.57563 15.216 2.58957 15.2572 2.60366L15.8261 2.7984C17.2334 3.28012 18.3194 3.65188 19.0969 3.96772C19.4885 4.12682 19.8252 4.28092 20.0963 4.43837C20.3573 4.58989 20.619 4.77888 20.7968 5.03224C20.9726 5.28268 21.0635 5.59056 21.1206 5.88694C21.18 6.19506 21.2158 6.56469 21.2389 6.98907C21.2848 7.83176 21.2848 8.98621 21.2848 10.4836V12.0051C21.2848 17.8011 16.9072 20.5799 14.3039 21.7171L14.2781 21.7284C13.9553 21.8694 13.6519 22.002 13.3032 22.0913C12.9351 22.1855 12.5441 22.2258 12.0223 22.2258C11.5004 22.2258 11.1094 22.1855 10.7413 22.0913C10.3926 22.002 10.0892 21.8694 9.76642 21.7284L9.74068 21.7171C7.13739 20.5799 2.75977 17.8011 2.75977 12.0051V10.4837C2.75977 8.98625 2.75977 7.83177 2.80565 6.98907C2.82875 6.56469 2.86456 6.19506 2.92394 5.88694C2.98105 5.59056 3.07194 5.28268 3.24771 5.03224C3.42554 4.77888 3.68729 4.58989 3.9482 4.43837C4.21932 4.28092 4.55601 4.12682 4.94764 3.96772C5.7251 3.65188 6.81115 3.28012 8.21842 2.79841L8.78735 2.60366C8.82853 2.58957 8.86923 2.57563 8.90949 2.56185Z" fill="#727689"/>
<path d="M9.0002 14.4002L14.9998 9M14.9996 14.4002L9 9" stroke="#727689" stroke-width="1.2" stroke-linecap="round"/>
</svg>

<svg xmlns="http://www.w3.org/2000/svg" width="24" height="24" fill="none"><path fill="#727689" fill-rule="evenodd" d="M12.022 3.226c-.624 0-1.24.2-2.773.726l-.544.186c-1.437.492-2.485.851-3.221 1.15a7 7 0 0 0-.82.383 2 2 0 0 0-.198.132.4.4 0 0 0-.052.048.4.4 0 0 0-.03.07 2 2 0 0 0-.06.236 7 7 0 0 0-.095.91c-.044.799-.044 1.914-.044 3.442v1.496c0 4.917 3.676 7.336 6.126 8.406.353.154.557.242.784.3.216.055.48.09.927.09s.711-.035.928-.09c.227-.058.43-.145.783-.3 2.45-1.07 6.127-3.49 6.127-8.406V10.51c0-1.528 0-2.643-.044-3.442a7 7 0 0 0-.095-.91 2 2 0 0 0-.06-.237.4.4 0 0 0-.03-.069c-.003-.002-.016-.019-.052-.048a2 2 0 0 0-.198-.132 7 7 0 0 0-.82-.383c-.736-.299-1.784-.658-3.221-1.15l-.544-.186c-1.534-.525-2.149-.726-2.774-.726M8.91 2.562c1.372-.47 2.223-.761 3.113-.761s1.741.291 3.113.76l.122.043.57.194c1.406.482 2.492.854 3.27 1.17.391.159.728.313 1 .47.26.152.522.34.7.594.176.25.267.559.324.855.059.308.095.678.118 1.102.046.843.046 1.997.046 3.495v1.521c0 5.796-4.378 8.575-6.981 9.712l-.026.011c-.323.141-.626.274-.975.363-.368.095-.759.135-1.28.135-.523 0-.914-.04-1.282-.135-.348-.089-.652-.222-.975-.363l-.025-.01C7.137 20.58 2.76 17.8 2.76 12.004v-1.521c0-1.498 0-2.652.046-3.495.023-.424.059-.794.118-1.102.057-.296.148-.604.324-.855.178-.253.44-.442.7-.594a8 8 0 0 1 1-.47c.777-.316 1.863-.688 3.27-1.17l.57-.194z" clip-rule="evenodd"/><path stroke="#727689" stroke-linecap="round" stroke-width="1.2" d="M9 14.4 15 9m0 5.4L9 9"/></svg>
